X: 41987
T: Walls Of Liscarrol, The
R: jig
M: 6/8
K: Edorian
e|edB BAF|AFE E2F|AFF dFF|ABc def|
edB BAF|AFE E2F|AFF DFF|FED E2:|
e|eBe fdB|eBe fdB|AFF dFF|ABc def|
[1 gfe fed|edB d2B|AFA dAF|EFE E2:|
[2 edB BaF|AFE E2F|AFF DFF|FED E2||

